svg/cloud_plus_outline.svg

<svg xmlns="http://www.w3.org/2000/svg" viewBox="0 0 24 24"><path d="M13 19c0 .34.04.67.09 1H6.5c-1.5 0-2.81-.5-3.89-1.57C1.54 17.38 1 16.09 1 14.58q0-1.95 1.17-3.48C3.34 9.57 4 9.43 5.25 9.15c.42-1.53 1.25-2.77 2.5-3.72S10.42 4 12 4c1.95 0 3.6.68 4.96 2.04S19 9.05 19 11c1.15.13 2.1.63 2.86 1.5.51.57.84 1.21 1 1.92A5.9 5.9 0 0 0 19 13h-2v-2c0-1.38-.5-2.56-1.46-3.54C14.56 6.5 13.38 6 12 6s-2.56.5-3.54 1.46C7.5 8.44 7 9.62 7 11h-.5c-.97 0-1.79.34-2.47 1.03-.69.68-1.03 1.5-1.03 2.47s.34 1.79 1.03 2.5c.68.66 1.5 1 2.47 1h6.59c-.05.33-.09.66-.09 1m7-1v-3h-2v3h-3v2h3v3h2v-3h3v-2z"/></svg>

<svg xmlns="http://www.w3.org/2000/svg" id="mdi-cloud-plus-outline" viewBox="0 0 24 24"><path d="M13 19C13 19.34 13.04 19.67 13.09 20H6.5C5 20 3.69 19.5 2.61 18.43C1.54 17.38 1 16.09 1 14.58C1 13.28 1.39 12.12 2.17 11.1S4 9.43 5.25 9.15C5.67 7.62 6.5 6.38 7.75 5.43S10.42 4 12 4C13.95 4 15.6 4.68 16.96 6.04C18.32 7.4 19 9.05 19 11C20.15 11.13 21.1 11.63 21.86 12.5C22.37 13.07 22.7 13.71 22.86 14.42C21.82 13.54 20.5 13 19 13C18.89 13 18.79 13 18.68 13C18.62 13 18.56 13 18.5 13H17V11C17 9.62 16.5 8.44 15.54 7.46C14.56 6.5 13.38 6 12 6S9.44 6.5 8.46 7.46C7.5 8.44 7 9.62 7 11H6.5C5.53 11 4.71 11.34 4.03 12.03C3.34 12.71 3 13.53 3 14.5S3.34 16.29 4.03 17C4.71 17.66 5.53 18 6.5 18H13.09C13.04 18.33 13 18.66 13 19M20 18V15H18V18H15V20H18V23H20V20H23V18H20Z" /></svg>
